src/assets/outline/Gift.svg

<svg width="24" height="24" viewBox="0 0 24 24"  xmlns="http://www.w3.org/2000/svg">
<path d="M15.9702 22.75H7.97021C4.55021 22.75 3.22021 21.42 3.22021 18V10C3.22021 9.59 3.56021 9.25 3.97021 9.25H19.9702C20.3802 9.25 20.7202 9.59 20.7202 10V18C20.7202 21.42 19.3902 22.75 15.9702 22.75ZM4.72021 10.75V18C4.72021 20.58 5.39021 21.25 7.97021 21.25H15.9702C18.5502 21.25 19.2202 20.58 19.2202 18V10.75H4.72021Z" />
<path d="M19.5 10.75H4.5C2.75 10.75 1.75 9.75 1.75 8V7C1.75 5.25 2.75 4.25 4.5 4.25H19.5C21.2 4.25 22.25 5.3 22.25 7V8C22.25 9.7 21.2 10.75 19.5 10.75ZM4.5 5.75C3.59 5.75 3.25 6.09 3.25 7V8C3.25 8.91 3.59 9.25 4.5 9.25H19.5C20.38 9.25 20.75 8.88 20.75 8V7C20.75 6.12 20.38 5.75 19.5 5.75H4.5Z" />
<path d="M11.6401 5.74988H6.12009C5.91009 5.74988 5.71009 5.65988 5.57009 5.50988C4.96009 4.83988 4.98009 3.80988 5.62009 3.16988L7.04009 1.74988C7.70009 1.08988 8.79009 1.08988 9.45009 1.74988L12.1701 4.46988C12.3801 4.67988 12.4501 5.00988 12.3301 5.28988C12.2201 5.56988 11.9501 5.74988 11.6401 5.74988ZM6.67009 4.24988H9.84009L8.39009 2.80988C8.31009 2.72988 8.18009 2.72988 8.10009 2.80988L6.68009 4.22988C6.68009 4.23988 6.67009 4.23988 6.67009 4.24988Z" />
<path d="M17.8701 5.74988H12.3501C12.0501 5.74988 11.7701 5.56988 11.6601 5.28988C11.5401 5.00988 11.6101 4.68988 11.8201 4.46988L14.5401 1.74988C15.2001 1.08988 16.2901 1.08988 16.9501 1.74988L18.3701 3.16988C19.0101 3.80988 19.0401 4.83988 18.4201 5.50988C18.2801 5.65988 18.0801 5.74988 17.8701 5.74988ZM14.1701 4.24988H17.3401C17.3301 4.23988 17.3301 4.23988 17.3201 4.22988L15.9001 2.80988C15.8201 2.72988 15.6901 2.72988 15.6101 2.80988L14.1701 4.24988Z" />
<path d="M9.93994 16.9C9.65994 16.9 9.36994 16.83 9.10994 16.69C8.53994 16.38 8.18994 15.79 8.18994 15.15V10C8.18994 9.59 8.52994 9.25 8.93994 9.25H14.9799C15.3899 9.25 15.7299 9.59 15.7299 10V15.13C15.7299 15.78 15.3799 16.37 14.8099 16.67C14.2399 16.98 13.5499 16.94 13.0099 16.58L12.1199 15.98C12.0399 15.92 11.9299 15.92 11.8399 15.98L10.8999 16.6C10.6099 16.8 10.2699 16.9 9.93994 16.9ZM9.68994 10.75V15.14C9.68994 15.27 9.76994 15.33 9.81994 15.36C9.86994 15.39 9.96994 15.42 10.0799 15.35L11.0199 14.73C11.6099 14.34 12.3699 14.34 12.9499 14.73L13.8399 15.33C13.9499 15.4 14.0499 15.37 14.0999 15.34C14.1499 15.31 14.2299 15.25 14.2299 15.12V10.74H9.68994V10.75Z" />
</svg>

<?xml version="1.0" encoding="UTF-8"?>
<svg width="24" height="24" viewBox="0 0 24 24" xmlns="http://www.w3.org/2000/svg">
 <path d="m15.97 22.75h-8c-3.42 0-4.75-1.33-4.75-4.75v-8c0-0.41 0.34-0.75 0.75-0.75h16c0.41 0 0.75 0.34 0.75 0.75v8c0 3.42-1.33 4.75-4.75 4.75zm-11.25-12v7.25c0 2.58 0.67 3.25 3.25 3.25h8c2.58 0 3.25-0.67 3.25-3.25v-7.25h-14.5z"/>
 <path d="m19.5 10.75h-15c-1.75 0-2.75-1-2.75-2.75v-1c0-1.75 1-2.75 2.75-2.75h15c1.7 0 2.75 1.05 2.75 2.75v1c0 1.7-1.05 2.75-2.75 2.75zm-15-5c-0.91 0-1.25 0.34-1.25 1.25v1c0 0.91 0.34 1.25 1.25 1.25h15c0.88 0 1.25-0.37 1.25-1.25v-1c0-0.88-0.37-1.25-1.25-1.25h-15z"/>
 <path d="m11.64 5.7499h-5.52c-0.21 0-0.41-0.09-0.55-0.24-0.61-0.67-0.59-1.7 0.05-2.34l1.42-1.42c0.66-0.66 1.75-0.66 2.41 0l2.72 2.72c0.21 0.21 0.28 0.54 0.16 0.82-0.11 0.28-0.38 0.46-0.69 0.46zm-4.97-1.5h3.17l-1.45-1.44c-0.08-0.08-0.21-0.08-0.29 0l-1.42 1.42c0 0.01-0.01 0.01-0.01 0.02z"/>
 <path d="m17.87 5.7499h-5.52c-0.3 0-0.58-0.18-0.69-0.46-0.12-0.28-0.05-0.6 0.16-0.82l2.72-2.72c0.66-0.66 1.75-0.66 2.41 0l1.42 1.42c0.64 0.64 0.67 1.67 0.05 2.34-0.14 0.15-0.34 0.24-0.55 0.24zm-3.7-1.5h3.17l-1.44-1.44c-0.08-0.08-0.21-0.08-0.29 0l-1.44 1.44z"/>
 <path d="m9.9399 16.9c-0.28 0-0.57-0.07-0.83-0.21-0.57-0.31-0.92-0.9-0.92-1.54v-5.15c0-0.41 0.34-0.75 0.75-0.75h6.04c0.41 0 0.75 0.34 0.75 0.75v5.13c0 0.65-0.35 1.24-0.92 1.54-0.57 0.31-1.26 0.27-1.8-0.09l-0.89-0.6c-0.08-0.06-0.19-0.06-0.28 0l-0.94 0.62c-0.29 0.2-0.63 0.3-0.95996 0.3zm-0.25-6.15v4.39c0 0.13 0.08 0.19 0.13 0.22s0.15 0.06 0.25996-0.01l0.94-0.62c0.59-0.39 1.35-0.39 1.93 0l0.89 0.6c0.11 0.07 0.21 0.04 0.26 0.01s0.13-0.09 0.13-0.22v-4.38h-4.54v0.01z"/>
</svg>
